svgs/regular/plug.svg

<svg xmlns="http://www.w3.org/2000/svg" viewBox="0 0 384 512"><!--! Font Awesome Pro 6.6.0 by @fontawesome - https://fontawesome.com License - https://fontawesome.com/license (Commercial License) Copyright 2024 Fonticons, Inc. --><path d="M128 24c0-13.3-10.7-24-24-24S80 10.7 80 24l0 88 48 0 0-88zm176 0c0-13.3-10.7-24-24-24s-24 10.7-24 24l0 88 48 0 0-88zM24 144c-13.3 0-24 10.7-24 24s10.7 24 24 24l8 0 0 64c0 80.2 59 146.6 136 158.2l0 73.8c0 13.3 10.7 24 24 24s24-10.7 24-24l0-73.8c77-11.6 136-78 136-158.2l0-64 8 0c13.3 0 24-10.7 24-24s-10.7-24-24-24l-8 0-48 0L80 144l-48 0-8 0zM192 368c-61.9 0-112-50.1-112-112l0-64 224 0 0 64c0 61.9-50.1 112-112 112z"/></svg>

<svg xmlns="http://www.w3.org/2000/svg" viewBox="0 0 384 512"><!--! Font Awesome Pro 6.4.0 by @fontawesome - https://fontawesome.com License - https://fontawesome.com/license (Commercial License) Copyright 2023 Fonticons, Inc. --><path d="M128 24c0-13.3-10.7-24-24-24S80 10.7 80 24v88h48V24zm176 0c0-13.3-10.7-24-24-24s-24 10.7-24 24v88h48V24zM24 144c-13.3 0-24 10.7-24 24s10.7 24 24 24h8v64c0 80.2 59 146.6 136 158.2V488c0 13.3 10.7 24 24 24s24-10.7 24-24V414.2c77-11.6 136-78 136-158.2V192h8c13.3 0 24-10.7 24-24s-10.7-24-24-24h-8H304 80 32 24zM192 368c-61.9 0-112-50.1-112-112V192H304v64c0 61.9-50.1 112-112 112z"/></svg>
